findly-builder/apps/searchassist/src/assets/images/source-icos/check-green.svg

<svg width="16" height="16" viewBox="0 0 16 16" fill="none" xmlns="http://www.w3.org/2000/svg">
<rect width="16" height="16" fill="#D8D8D8" fill-opacity="0.01"/>
<path fill-rule="evenodd" clip-rule="evenodd" d="M13.7794 2.82415C13.9659 2.62329 14.2784 2.61317 14.4774 2.80155C14.6646 2.97885 14.6845 3.26879 14.5306 3.46975L14.4998 3.50634L6.13745 12.5091C5.95877 12.7015 5.66541 12.7184 5.46672 12.5558L5.43063 12.5232L1.44726 8.55978C1.253 8.36649 1.2507 8.0508 1.44213 7.85465C1.6223 7.67005 1.90987 7.65713 2.10503 7.8174L2.14049 7.84948L5.76332 11.4541L13.7794 2.82415Z" fill="#28A745"/>
</svg>

<svg width="16" height="16" fill="none" xmlns="http://www.w3.org/2000/svg"><path fill="#D8D8D8" fill-opacity=".01" d="M0 0h16v16H0z"/><path fill-rule="evenodd" clip-rule="evenodd" d="M13.78 2.824a.49.49 0 0 1 .697-.022.502.502 0 0 1 .054.668l-.031.036-8.363 9.003a.49.49 0 0 1-.67.047l-.036-.033L1.447 8.56a.502.502 0 0 1-.005-.705.49.49 0 0 1 .663-.038l.035.032 3.623 3.605 8.016-8.63Z" fill="#28A745"/></svg>
